week1assignment/img/SVG/icon_football_24x24.svg

<svg fill="none" height="24" viewBox="0 0 24 24" width="24" xmlns="http://www.w3.org/2000/svg" xmlns:xlink="http://www.w3.org/1999/xlink"><clipPath id="a"><path d="m0 0h24v24h-24z"/></clipPath><g clip-path="url(#a)" stroke="#fff" stroke-miterlimit="10"><path d="m12 23.52c6.3623 0 11.52-5.1577 11.52-11.52 0-6.36232-5.1577-11.52-11.52-11.52-6.36234 0-11.52002 5.15768-11.52002 11.52 0 6.3623 5.15768 11.52 11.52002 11.52z"/><path d="m6.50879 11.3568 3.3696 5.7024"/><path d="m9.87842 17.0592 6.23998-1.392"/><path d="m16.1182 15.6672.7776-6.5088"/><path d="m16.896 9.1584-5.8272-2.5536"/><path d="m11.0688 6.6048-4.56001 4.752"/><path d="m6.50864 11.3568-3.2352-.4224"/><path d="m3.27344 10.9344-1.6416-3.9648"/><path d="m3.27381 10.9344-2.553595 3.3984"/><path d="m9.87833 17.0592-1.392 2.8512"/><path d="m8.48644 19.9104-4.5216.336"/><path d="m8.48633 19.9104 2.39037 3.6096"/><path d="m16.1182 15.6672 2.4 2.1696"/><path d="m18.5182 17.8368-1.0656 4.3104"/><path d="m18.5186 17.8368 4.224-1.6608"/><path d="m16.896 9.1584 2.7552-1.7472"/><path d="m19.6511 7.4112-.1823-4.176"/><path d="m19.6514 7.4112 3.6192 2.1792"/><path d="m11.0686 6.6048-.8064-3.4368"/><path d="m10.2622 3.168 3.1392-2.688"/><path d="m10.2623 3.168-4.0416-1.1328"/></g></svg>

<svg width="24" height="24" viewBox="0 0 24 24" fill="none" xmlns="http://www.w3.org/2000/svg">
<g id="icon_football_24px 1" clip-path="url(#clip0_321_123)">
<g id="uuid-a047a6ed-6c21-4621-81af-c8612e57271c">
<path id="Vector" d="M12 23.52C18.3623 23.52 23.52 18.3623 23.52 12C23.52 5.63768 18.3623 0.48 12 0.48C5.63766 0.48 0.47998 5.63768 0.47998 12C0.47998 18.3623 5.63766 23.52 12 23.52Z" stroke="white" stroke-miterlimit="10"/>
<path id="Vector_2" d="M6.50879 11.3568L9.87839 17.0592" stroke="white" stroke-miterlimit="10"/>
<path id="Vector_3" d="M9.87842 17.0592L16.1184 15.6672" stroke="white" stroke-miterlimit="10"/>
<path id="Vector_4" d="M16.1182 15.6672L16.8958 9.1584" stroke="white" stroke-miterlimit="10"/>
<path id="Vector_5" d="M16.896 9.1584L11.0688 6.6048" stroke="white" stroke-miterlimit="10"/>
<path id="Vector_6" d="M11.0688 6.6048L6.50879 11.3568" stroke="white" stroke-miterlimit="10"/>
<path id="Vector_7" d="M6.50864 11.3568L3.27344 10.9344" stroke="white" stroke-miterlimit="10"/>
<path id="Vector_8" d="M3.27344 10.9344L1.63184 6.9696" stroke="white" stroke-miterlimit="10"/>
<path id="Vector_9" d="M3.27381 10.9344L0.720215 14.3328" stroke="white" stroke-miterlimit="10"/>
<path id="Vector_10" d="M9.87833 17.0592L8.48633 19.9104" stroke="white" stroke-miterlimit="10"/>
<path id="Vector_11" d="M8.48644 19.9104L3.96484 20.2464" stroke="white" stroke-miterlimit="10"/>
<path id="Vector_12" d="M8.48633 19.9104L10.8767 23.52" stroke="white" stroke-miterlimit="10"/>
<path id="Vector_13" d="M16.1182 15.6672L18.5182 17.8368" stroke="white" stroke-miterlimit="10"/>
<path id="Vector_14" d="M18.5182 17.8368L17.4526 22.1472" stroke="white" stroke-miterlimit="10"/>
<path id="Vector_15" d="M18.5186 17.8368L22.7426 16.176" stroke="white" stroke-miterlimit="10"/>
<path id="Vector_16" d="M16.896 9.1584L19.6512 7.4112" stroke="white" stroke-miterlimit="10"/>
<path id="Vector_17" d="M19.6511 7.4112L19.4688 3.2352" stroke="white" stroke-miterlimit="10"/>
<path id="Vector_18" d="M19.6514 7.4112L23.2706 9.5904" stroke="white" stroke-miterlimit="10"/>
<path id="Vector_19" d="M11.0686 6.6048L10.2622 3.168" stroke="white" stroke-miterlimit="10"/>
<path id="Vector_20" d="M10.2622 3.168L13.4014 0.48" stroke="white" stroke-miterlimit="10"/>
<path id="Vector_21" d="M10.2623 3.168L6.2207 2.0352" stroke="white" stroke-miterlimit="10"/>
</g>
</g>
<defs>
<clipPath id="clip0_321_123">
<rect width="24" height="24" fill="white"/>
</clipPath>
</defs>
</svg>
